X: 26817
T: Milliner's Daughter, The
R: reel
M: 4/4
K: Gmajor
|:.G.GBG DGBG|~A2eg fdcA|~G2BG DGBG|ADFF ABcA|
.G.GBG DGBG|~A2~g2 fdcA|~G2BG DGBG|cAFA AG~G2:|
|:dg~g2 dg~g2|df~f2 df~f2|dg~g2 dg~g2|d^cde fd=cA|
dg~g2 bgag|fdde J~f3g|af (3gfe fde^c|dcde fdcA:|

